svg/700/sharp/casino-fill.svg

<svg xmlns="http://www.w3.org/2000/svg" width="48" height="48" viewBox="0 -960 960 960"><path d="M315.118-265Q336-265 350.5-279.618q14.5-14.617 14.5-35.5Q365-336 350.382-350.5q-14.617-14.5-35.5-14.5Q294-365 279.5-350.382q-14.5 14.617-14.5 35.5Q265-294 279.618-279.5q14.617 14.5 35.5 14.5Zm0-330Q336-595 350.5-609.618q14.5-14.617 14.5-35.5Q365-666 350.382-680.5q-14.617-14.5-35.5-14.5Q294-695 279.5-680.382q-14.5 14.617-14.5 35.5Q265-624 279.618-609.5q14.617 14.5 35.5 14.5Zm165 165Q501-430 515.5-444.618q14.5-14.617 14.5-35.5Q530-501 515.382-515.5q-14.617-14.5-35.5-14.5Q459-530 444.5-515.382q-14.5 14.617-14.5 35.5Q430-459 444.618-444.5q14.617 14.5 35.5 14.5Zm165 165Q666-265 680.5-279.618q14.5-14.617 14.5-35.5Q695-336 680.382-350.5q-14.617-14.5-35.5-14.5Q624-365 609.5-350.382q-14.5 14.617-14.5 35.5Q595-294 609.618-279.5q14.617 14.5 35.5 14.5Zm0-330Q666-595 680.5-609.618q14.5-14.617 14.5-35.5Q695-666 680.382-680.5q-14.617-14.5-35.5-14.5Q624-695 609.5-680.382q-14.5 14.617-14.5 35.5Q595-624 609.618-609.5q14.617 14.5 35.5 14.5ZM95-95v-771h771v771H95Z"/></svg>

<svg xmlns="http://www.w3.org/2000/svg" width="48" height="48" viewBox="0 -960 960 960"><path d="M315.12-265q20.88 0 35.38-14.62 14.5-14.62 14.5-35.5 0-20.88-14.62-35.38-14.62-14.5-35.5-14.5-20.88 0-35.38 14.62-14.5 14.62-14.5 35.5 0 20.88 14.62 35.38 14.62 14.5 35.5 14.5Zm0-330q20.88 0 35.38-14.62 14.5-14.62 14.5-35.5 0-20.88-14.62-35.38-14.62-14.5-35.5-14.5-20.88 0-35.38 14.62-14.5 14.62-14.5 35.5 0 20.88 14.62 35.38 14.62 14.5 35.5 14.5Zm165 165q20.88 0 35.38-14.62 14.5-14.62 14.5-35.5 0-20.88-14.62-35.38-14.62-14.5-35.5-14.5-20.88 0-35.38 14.62-14.5 14.62-14.5 35.5 0 20.88 14.62 35.38 14.62 14.5 35.5 14.5Zm165 165q20.88 0 35.38-14.62 14.5-14.62 14.5-35.5 0-20.88-14.62-35.38-14.62-14.5-35.5-14.5-20.88 0-35.38 14.62-14.5 14.62-14.5 35.5 0 20.88 14.62 35.38 14.62 14.5 35.5 14.5Zm0-330q20.88 0 35.38-14.62 14.5-14.62 14.5-35.5 0-20.88-14.62-35.38-14.62-14.5-35.5-14.5-20.88 0-35.38 14.62-14.5 14.62-14.5 35.5 0 20.88 14.62 35.38 14.62 14.5 35.5 14.5ZM95-95v-771h771v771H95Z"/></svg>
